openmetadata-ui/src/main/resources/ui/src/assets/svg/Remove.svg

<svg width="16" height="16" viewBox="0 0 16 16" fill="none" xmlns="http://www.w3.org/2000/svg">
<path d="M8 16C3.58887 16 0 12.4111 0 8C0 3.58887 3.58887 0 8 0C12.4111 0 16 3.58887 16 8C16 12.4111 12.4111 16 8 16ZM8 1C4.14013 1 1 4.14013 1 8C1 11.8599 4.14013 15 8 15C11.8599 15 15 11.8599 15 8C15 4.14013 11.8599 1 8 1ZM12 8C12 7.72363 11.7764 7.5 11.5 7.5H4.5C4.22363 7.5 4 7.72363 4 8C4 8.27637 4.22363 8.5 4.5 8.5H11.5C11.7764 8.5 12 8.27637 12 8Z" fill="#37352F"/>
</svg>

<svg xmlns="http://www.w3.org/2000/svg" width="16" height="16" fill="none"><path fill="#37352F" d="M8 16c-4.411 0-8-3.589-8-8s3.589-8 8-8 8 3.589 8 8-3.589 8-8 8ZM8 1C4.14 1 1 4.14 1 8s3.14 7 7 7 7-3.14 7-7-3.14-7-7-7Zm4 7a.5.5 0 0 0-.5-.5h-7a.5.5 0 1 0 0 1h7A.5.5 0 0 0 12 8Z"/></svg>
